X:1
T:Title
%%score { ( 1 4 ) | ( 2 3 ) }
L:1/8
M:4/4
K:Bb
V:1 treble nm="Grand Piano"
V:4 treble 
V:2 bass 
V:3 bass 
V:1
 z4 z2[Q:1/4=100] [DF]>[DF] | [DB]2 [Fd]2 [DB]2 [DF][DF] | G2 B2 F2 F>d | c2 B2 A2 F2 | %4
[M:3/4] [DF]2 [DB]4 |[M:1/4] [DF]>[DF] |[M:4/4] [DB]2 [Fd]2 [DB]2 [DF][DF] | G2 B2 F2 F>d | c4 z4 | %9
[M:3/4] c2 [DB]4 |[M:1/4] F>B |[M:4/4] d6 z2 | [Dc]2 [DB]4 D>F | c6 z2 |[M:3/4] [EB]2 A4 | %15
[M:1/4] A>G |[M:4/4] F2 [Ae]2 [Ae]2 [EA]>[EG] | [DF]2 [Fd]2 [Fd]2 F>d | c2 B2 A2 F2 | %19
[M:3/4] c2 [DB]4 |] %20
V:2
 z4 z2 [B,,B,]>[B,,B,] | [B,,F,]2 [B,,B,]2 [B,,F,]2 [B,,B,][B,,B,] | %2
 [E,B,E]2 [G,B,E]2 [B,D]2 F,>D | C4 z4 |[M:3/4] [B,,B,]2 [B,,F,]4 |[M:1/4] [B,,B,]>[B,,B,] | %6
[M:4/4] [B,,F,]2 [B,,B,]2 [B,,F,]2 [B,,B,][B,,B,] | [E,B,E]2 [G,B,E]2 [B,D]2 F,>D | C4 z4 | %9
[M:3/4] [F,E]2 [B,,F,]4 |[M:1/4] z2 |[M:4/4] z2 [B,,B,]>[B,,B,] [D,B,]2 [F,A,E]2 | %12
 [B,,F,]2 [B,,F,]4 z2 | z2 [B,,F,]>[B,,F,] [D,B,]2 [_D,B,]2 |[M:3/4] [C,C]2 [F,CE]4 | %15
[M:1/4] [F,CE]>[F,B,E] |[M:4/4] [F,A,E]2 [F,C]2 [F,C]2 [F,C]>[F,A,] | %17
 [B,,B,]2 [B,,B,]2 [B,,B,]2 F,>D | C4 z4 |[M:3/4] [F,E]2 [B,,F,]4 |] %20
V:3
 x8 | x8 | x8 | z2 [F,E]2 [F,B,E]2 [F,A,D]2 |[M:3/4] x6 |[M:1/4] x2 |[M:4/4] x8 | x8 | %8
 z2 [F,E]2 [F,B,]2 [F,A,E]2 |[M:3/4] x6 |[M:1/4] x2 |[M:4/4] x8 | x8 | x8 |[M:3/4] x6 |[M:1/4] x2 | %16
[M:4/4] x8 | x8 | z2 [F,E]2 [F,B,E]2 [F,A,D]2 |[M:3/4] x6 |] %20
V:4
 x8 | x8 | x8 | x8 |[M:3/4] x6 |[M:1/4] x2 |[M:4/4] x8 | x8 | z2 A2 [EGB]2 F2 |[M:3/4] x6 | %10
[M:1/4] x2 |[M:4/4] z2 F>F F2 c2 | x8 | z2 D>D F2 [FB]2 |[M:3/4] x6 |[M:1/4] x2 |[M:4/4] x8 | x8 | %18
 x8 |[M:3/4] x6 |] %20

